X: 1
T: The Congress
R: reel
M: 4/4
L: 1/8
K: Ador
|:eAAG A2Bd|eaaf gedg|eAcA eAcA|BGGA Bdeg|
eAAG A2Bd|eaaf gedB|cBcd eged|cABG A2Bd:|
|:eaag abag|eaag egdg|egdg egdg|eaaf gedg|
eaag a2ag|eaaf gedB|c2cd e2ed|cABG A2Bd:|


Tune 208	Setting 27942

